report_00007_2020-12-11T15:55:29.892Z/server-response-time/comparison/line/11_vs_12.svg

<svg width="640" height="500" xmlns="http://www.w3.org/2000/svg" xmlns:xlink="http://www.w3.org/1999/xlink"><path fill="#fff" d="M0 0h640v500H0z"/><defs><path id="d" stroke-width=".222" stroke="currentColor" d="M-1-1h2v2h-2z"/><path id="b" stroke-width=".222" stroke="currentColor" d="M0-1.33l-1.33 2h2.66z"/><path id="f" stroke-width=".222" stroke="currentColor" d="M0 1.33L1.265.411.782-1.067l-1.564-.009-.483 1.487z"/><use xlink:href="#b" id="c" stroke="currentColor" transform="rotate(180)"/><use xlink:href="#d" id="e" stroke="currentColor" transform="rotate(45)"/><circle id="a" stroke-width=".222" stroke="currentColor" cx="0" cy="0" r="1"/></defs><g fill="none" color="#000" stroke="currentColor"><path stroke="#000" d="M53.9 378.8h9m552.1 0h-9"/><text transform="translate(45.6 382.7)" stroke="none" fill="#000" font-family="Arial" font-size="12" text-anchor="end"><tspan>1.4</tspan></text></g><g fill="none" color="#000" stroke="currentColor"><path stroke="#000" d="M53.9 319h9m552.1 0h-9"/><text transform="translate(45.6 322.9)" stroke="none" fill="#000" font-family="Arial" font-size="12" text-anchor="end"><tspan>1.6</tspan></text></g><g fill="none" color="#000" stroke="currentColor"><path stroke="#000" d="M53.9 259.2h9m552.1 0h-9"/><text transform="translate(45.6 263.1)" stroke="none" fill="#000" font-family="Arial" font-size="12" text-anchor="end"><tspan>1.8</tspan></text></g><g fill="none" color="#000" stroke="currentColor"><path stroke="#000" d="M53.9 199.4h9m552.1 0h-9"/><text transform="translate(45.6 203.3)" stroke="none" fill="#000" font-family="Arial" font-size="12" text-anchor="end"><tspan>2</tspan></text></g><g fill="none" color="#000" stroke="currentColor"><path stroke="#000" d="M53.9 139.6h9m552.1 0h-9"/><text transform="translate(45.6 143.5)" stroke="none" fill="#000" font-family="Arial" font-size="12" text-anchor="end"><tspan>2.2</tspan></text></g><g fill="none" color="#000" stroke="currentColor"><path stroke="#000" d="M53.9 79.8h9m552.1 0h-9"/><text transform="translate(45.6 83.7)" stroke="none" fill="#000" font-family="Arial" font-size="12" text-anchor="end"><tspan>2.4</tspan></text></g><g fill="none" color="#000" stroke="currentColor"><path stroke="#000" d="M53.9 20h9M615 20h-9"/><text transform="translate(45.6 23.9)" stroke="none" fill="#000" font-family="Arial" font-size="12" text-anchor="end"><tspan>2.6</tspan></text></g><g fill="none" color="#000" stroke="currentColor"><path stroke="#000" d="M53.9 428v-9m0-400.9v9"/><text transform="translate(53.9 449.9)" stroke="none" fill="#000" font-family="Arial" font-size="12" text-anchor="middle"><tspan>0</tspan></text></g><g fill="none" color="#000" stroke="currentColor"><path stroke="#000" d="M110.6 428v-9m0-400.9v9"/><text transform="translate(110.6 449.9)" stroke="none" fill="#000" font-family="Arial" font-size="12" text-anchor="middle"><tspan>10</tspan></text></g><g fill="none" color="#000" stroke="currentColor"><path stroke="#000" d="M167.3 428v-9m0-400.9v9"/><text transform="translate(167.3 449.9)" stroke="none" fill="#000" font-family="Arial" font-size="12" text-anchor="middle"><tspan>20</tspan></text></g><g fill="none" color="#000" stroke="currentColor"><path stroke="#000" d="M223.9 428v-9m0-400.9v9"/><text transform="translate(223.9 449.9)" stroke="none" fill="#000" font-family="Arial" font-size="12" text-anchor="middle"><tspan>30</tspan></text></g><g fill="none" color="#000" stroke="currentColor"><path stroke="#000" d="M280.6 428v-9m0-400.9v9"/><text transform="translate(280.6 449.9)" stroke="none" fill="#000" font-family="Arial" font-size="12" text-anchor="middle"><tspan>40</tspan></text></g><g fill="none" color="#000" stroke="currentColor"><path stroke="#000" d="M337.3 428v-9m0-400.9v9"/><text transform="translate(337.3 449.9)" stroke="none" fill="#000" font-family="Arial" font-size="12" text-anchor="middle"><tspan>50</tspan></text></g><g fill="none" color="#000" stroke="currentColor"><path stroke="#000" d="M394 428v-9m0-400.9v9"/><text transform="translate(394 449.9)" stroke="none" fill="#000" font-family="Arial" font-size="12" text-anchor="middle"><tspan>60</tspan></text></g><g fill="none" color="#000" stroke="currentColor"><path stroke="#000" d="M450.6 428v-9m0-400.9v9"/><text transform="translate(450.6 449.9)" stroke="none" fill="#000" font-family="Arial" font-size="12" text-anchor="middle"><tspan>70</tspan></text></g><g fill="none" color="#000" stroke="currentColor"><path stroke="#000" d="M507.3 428v-9m0-400.9v9"/><text transform="translate(507.3 449.9)" stroke="none" fill="#000" font-family="Arial" font-size="12" text-anchor="middle"><tspan>80</tspan></text></g><g fill="none" color="#000" stroke="currentColor"><path stroke="#000" d="M564 428v-9m0-400.9v9"/><text transform="translate(564 449.9)" stroke="none" fill="#000" font-family="Arial" font-size="12" text-anchor="middle"><tspan>90</tspan></text></g><path stroke="#000" d="M53.9 18.1V428H615V18.1H53.9z" fill="none" color="#000"/><text transform="translate(508.4 467.9)" stroke="none" fill="#000" font-family="Arial" font-size="12" text-anchor="end" color="#000"><tspan>pages+cached+noexternal+nofonts+nosvg+noimg</tspan></text><path stroke="#9400D3" d="M516.7 464h42.2m-505-199.4l5.7 19.2 5.6-128.3 5.7 76.8 5.7 45.8 5.6-18 5.7-23.6 5.7-89.1L99.2 267l5.7 69.4 5.7 57.7 5.6-103.8 5.7 47.3 5.7 11.6 5.6-112.1 5.7 54.7 5.7 49.4 5.7 65.5 5.6-154 5.7-30.5 5.7 82.5 5.6 95.7 5.7-292.8 5.7 286.2 5.6-41.6 5.7-64 5.7 38.9 5.6 34.1 5.7-46.3 5.7 51.4 5.6 36.2 5.7-156.4h5.7l5.6 139.3 5.7 13.8 5.7-135.2 5.6 92.7 5.7 12.9 5.7-83.2 5.6-69 5.7 86.1 5.7 94.8 5.6-118.7L297.6 26l5.7 355.2 5.6 4.5 5.7-239.5 5.7 169.6 5.6-59 5.7-24.2 5.7 157 5.7-75.3 5.6-106.8 5.7 209.3 5.7-105.2 5.6-161.8 5.7 99 5.7 31.7 5.6 7.7 5.7-78.3 5.7 185.7 5.6-11.7 5.7-73.2 5.7-12.3 5.6 78.4 5.7-36.5 5.7-106.2 5.6 55.9 5.7-3.6 5.7 26.1 5.6-113.7 5.7 160.3 5.7 13.2 5.6-159.4 5.7-66.1 5.7 64.6 5.6 117.5 5.7 52.9 5.7-244.3 5.6 144.8 5.7 25.7 5.7-89.1 5.6 142 5.7-28.7L530 194l5.7 32.6 5.6 34.7 5.7 11.4 5.7 114.8 5.6 6 5.7-88.2 5.7 78 5.6-51.1 5.7-41 5.7 2.4 5.6 99.6L598 267l5.7 13.5 5.6.6 5.7-1.2" fill="none" color="#000"/><text transform="translate(508.4 485.9)" stroke="none" fill="#000" font-family="Arial" font-size="12" text-anchor="end" color="#000"><tspan>pages+cached+noexternal+nofonts+nosvg+noimg+nocss</tspan></text><path stroke="#009E73" d="M516.7 482h42.2m-505-276.6l5.7 130.7 5.6 31.4 5.7-93.9 5.7-132.5 5.6-12.5 5.7 241 5.7-36.8 5.6-82.8 5.7-78.7 5.7-32.9 5.6 253 5.7-84.3 5.7-77.2 5.6 180.3 5.7-23.6 5.7-110 5.7 6.9 5.6 1.5 5.7 67.8 5.7 60.1 5.6-119.6 5.7 13.8 5.7-75.7 5.6 41.3 5.7-4.5 5.7 127.7 5.6-109.8 5.7-112.4 5.7 180.9 5.6 55.3 5.7-188 5.7 69.3 5.6 91.2 5.7-148 5.7 43.4 5.6 37.4 5.7-77.2 5.7 130.1 5.6 11 5.7-78.3 5.7-37.1 5.6 137.6 5.7-9 5.7-190.8 5.6 98.4 5.7-84.3 5.7 79.5 5.6-48.4 5.7 115.1 5.7-329.2 5.7 227.2 5.6 42.8 5.7-162.7 5.7 255.7 5.6 19.1 5.7-196.4 5.7 199.4 5.6-33.8 5.7-98.9 5.7 98 5.6 3.3 5.7-209.6 5.7 199.2 5.6 39.7 5.7-253.3 5.7 91.9 5.6-123.3 5.7 254.2 5.7-97.5 5.6 70.3 5.7 18.9 5.7-201.9 5.6 184.5 5.7 23L479 267l5.6-3.3 5.7-2.4 5.7-49.6 5.6 208.4 5.7-63.7 5.7-66.7 5.6-104.9 5.7 106.1L530 63.4l5.7 288.2 5.6-122L547 334l5.7 39.5 5.6-153.7 5.7 66 5.7-20.6 5.6-26.9 5.7-18.2 5.7 80.7 5.6-51.1 5.7 141.4 5.7-182.7 5.6 150.7 5.7.9" fill="none" color="#000"/><g fill="none" color="#000" stroke="currentColor"><path stroke="#000" d="M53.9 18.1V428H615V18.1H53.9z"/></g></svg>

<?xml version="1.0" encoding="utf-8"  standalone="no"?>
<svg 
 width="640" height="500"
 viewBox="0 0 640 500"
 xmlns="http://www.w3.org/2000/svg"
 xmlns:xlink="http://www.w3.org/1999/xlink"
>

<title>Gnuplot</title>
<desc>Produced by GNUPLOT 5.4 patchlevel 0 </desc>

<g id="gnuplot_canvas">

<rect x="0" y="0" width="640" height="500" fill="#ffffff"/>
<defs>

	<circle id='gpDot' r='0.5' stroke-width='0.5' stroke='currentColor'/>
	<path id='gpPt0' stroke-width='0.222' stroke='currentColor' d='M-1,0 h2 M0,-1 v2'/>
	<path id='gpPt1' stroke-width='0.222' stroke='currentColor' d='M-1,-1 L1,1 M1,-1 L-1,1'/>
	<path id='gpPt2' stroke-width='0.222' stroke='currentColor' d='M-1,0 L1,0 M0,-1 L0,1 M-1,-1 L1,1 M-1,1 L1,-1'/>
	<rect id='gpPt3' stroke-width='0.222' stroke='currentColor' x='-1' y='-1' width='2' height='2'/>
	<rect id='gpPt4' stroke-width='0.222' stroke='currentColor' fill='currentColor' x='-1' y='-1' width='2' height='2'/>
	<circle id='gpPt5' stroke-width='0.222' stroke='currentColor' cx='0' cy='0' r='1'/>
	<use xlink:href='#gpPt5' id='gpPt6' fill='currentColor' stroke='none'/>
	<path id='gpPt7' stroke-width='0.222' stroke='currentColor' d='M0,-1.33 L-1.33,0.67 L1.33,0.67 z'/>
	<use xlink:href='#gpPt7' id='gpPt8' fill='currentColor' stroke='none'/>
	<use xlink:href='#gpPt7' id='gpPt9' stroke='currentColor' transform='rotate(180)'/>
	<use xlink:href='#gpPt9' id='gpPt10' fill='currentColor' stroke='none'/>
	<use xlink:href='#gpPt3' id='gpPt11' stroke='currentColor' transform='rotate(45)'/>
	<use xlink:href='#gpPt11' id='gpPt12' fill='currentColor' stroke='none'/>
	<path id='gpPt13' stroke-width='0.222' stroke='currentColor' d='M0,1.330 L1.265,0.411 L0.782,-1.067 L-0.782,-1.076 L-1.265,0.411 z'/>
	<use xlink:href='#gpPt13' id='gpPt14' fill='currentColor' stroke='none'/>
	<filter id='textbox' filterUnits='objectBoundingBox' x='0' y='0' height='1' width='1'>
	  <feFlood flood-color='#FFFFFF' flood-opacity='1' result='bgnd'/>
	  <feComposite in='SourceGraphic' in2='bgnd' operator='atop'/>
	</filter>
	<filter id='greybox' filterUnits='objectBoundingBox' x='0' y='0' height='1' width='1'>
	  <feFlood flood-color='lightgrey' flood-opacity='1' result='grey'/>
	  <feComposite in='SourceGraphic' in2='grey' operator='atop'/>
	</filter>
</defs>
<g fill="none" color="#FFFFFF" stroke="black" stroke-width="1.00" stroke-linecap="butt" stroke-linejoin="miter">
</g>
<g fill="none" color="black" stroke="currentColor" stroke-width="1.00" stroke-linecap="butt" stroke-linejoin="miter">
	<path stroke='black'  d='M53.9,378.8 L62.9,378.8 M615.0,378.8 L606.0,378.8  '/>	<g transform="translate(45.6,382.7)" stroke="none" fill="black" font-family="Arial" font-size="12.00"  text-anchor="end">
		<text><tspan font-family="Arial" > 1.4</tspan></text>
	</g>
</g>
<g fill="none" color="black" stroke="currentColor" stroke-width="1.00" stroke-linecap="butt" stroke-linejoin="miter">
	<path stroke='black'  d='M53.9,319.0 L62.9,319.0 M615.0,319.0 L606.0,319.0  '/>	<g transform="translate(45.6,322.9)" stroke="none" fill="black" font-family="Arial" font-size="12.00"  text-anchor="end">
		<text><tspan font-family="Arial" > 1.6</tspan></text>
	</g>
</g>
<g fill="none" color="black" stroke="currentColor" stroke-width="1.00" stroke-linecap="butt" stroke-linejoin="miter">
	<path stroke='black'  d='M53.9,259.2 L62.9,259.2 M615.0,259.2 L606.0,259.2  '/>	<g transform="translate(45.6,263.1)" stroke="none" fill="black" font-family="Arial" font-size="12.00"  text-anchor="end">
		<text><tspan font-family="Arial" > 1.8</tspan></text>
	</g>
</g>
<g fill="none" color="black" stroke="currentColor" stroke-width="1.00" stroke-linecap="butt" stroke-linejoin="miter">
	<path stroke='black'  d='M53.9,199.4 L62.9,199.4 M615.0,199.4 L606.0,199.4  '/>	<g transform="translate(45.6,203.3)" stroke="none" fill="black" font-family="Arial" font-size="12.00"  text-anchor="end">
		<text><tspan font-family="Arial" > 2</tspan></text>
	</g>
</g>
<g fill="none" color="black" stroke="currentColor" stroke-width="1.00" stroke-linecap="butt" stroke-linejoin="miter">
	<path stroke='black'  d='M53.9,139.6 L62.9,139.6 M615.0,139.6 L606.0,139.6  '/>	<g transform="translate(45.6,143.5)" stroke="none" fill="black" font-family="Arial" font-size="12.00"  text-anchor="end">
		<text><tspan font-family="Arial" > 2.2</tspan></text>
	</g>
</g>
<g fill="none" color="black" stroke="currentColor" stroke-width="1.00" stroke-linecap="butt" stroke-linejoin="miter">
	<path stroke='black'  d='M53.9,79.8 L62.9,79.8 M615.0,79.8 L606.0,79.8  '/>	<g transform="translate(45.6,83.7)" stroke="none" fill="black" font-family="Arial" font-size="12.00"  text-anchor="end">
		<text><tspan font-family="Arial" > 2.4</tspan></text>
	</g>
</g>
<g fill="none" color="black" stroke="currentColor" stroke-width="1.00" stroke-linecap="butt" stroke-linejoin="miter">
	<path stroke='black'  d='M53.9,20.0 L62.9,20.0 M615.0,20.0 L606.0,20.0  '/>	<g transform="translate(45.6,23.9)" stroke="none" fill="black" font-family="Arial" font-size="12.00"  text-anchor="end">
		<text><tspan font-family="Arial" > 2.6</tspan></text>
	</g>
</g>
<g fill="none" color="black" stroke="currentColor" stroke-width="1.00" stroke-linecap="butt" stroke-linejoin="miter">
	<path stroke='black'  d='M53.9,428.0 L53.9,419.0 M53.9,18.1 L53.9,27.1  '/>	<g transform="translate(53.9,449.9)" stroke="none" fill="black" font-family="Arial" font-size="12.00"  text-anchor="middle">
		<text><tspan font-family="Arial" > 0</tspan></text>
	</g>
</g>
<g fill="none" color="black" stroke="currentColor" stroke-width="1.00" stroke-linecap="butt" stroke-linejoin="miter">
	<path stroke='black'  d='M110.6,428.0 L110.6,419.0 M110.6,18.1 L110.6,27.1  '/>	<g transform="translate(110.6,449.9)" stroke="none" fill="black" font-family="Arial" font-size="12.00"  text-anchor="middle">
		<text><tspan font-family="Arial" > 10</tspan></text>
	</g>
</g>
<g fill="none" color="black" stroke="currentColor" stroke-width="1.00" stroke-linecap="butt" stroke-linejoin="miter">
	<path stroke='black'  d='M167.3,428.0 L167.3,419.0 M167.3,18.1 L167.3,27.1  '/>	<g transform="translate(167.3,449.9)" stroke="none" fill="black" font-family="Arial" font-size="12.00"  text-anchor="middle">
		<text><tspan font-family="Arial" > 20</tspan></text>
	</g>
</g>
<g fill="none" color="black" stroke="currentColor" stroke-width="1.00" stroke-linecap="butt" stroke-linejoin="miter">
	<path stroke='black'  d='M223.9,428.0 L223.9,419.0 M223.9,18.1 L223.9,27.1  '/>	<g transform="translate(223.9,449.9)" stroke="none" fill="black" font-family="Arial" font-size="12.00"  text-anchor="middle">
		<text><tspan font-family="Arial" > 30</tspan></text>
	</g>
</g>
<g fill="none" color="black" stroke="currentColor" stroke-width="1.00" stroke-linecap="butt" stroke-linejoin="miter">
	<path stroke='black'  d='M280.6,428.0 L280.6,419.0 M280.6,18.1 L280.6,27.1  '/>	<g transform="translate(280.6,449.9)" stroke="none" fill="black" font-family="Arial" font-size="12.00"  text-anchor="middle">
		<text><tspan font-family="Arial" > 40</tspan></text>
	</g>
</g>
<g fill="none" color="black" stroke="currentColor" stroke-width="1.00" stroke-linecap="butt" stroke-linejoin="miter">
	<path stroke='black'  d='M337.3,428.0 L337.3,419.0 M337.3,18.1 L337.3,27.1  '/>	<g transform="translate(337.3,449.9)" stroke="none" fill="black" font-family="Arial" font-size="12.00"  text-anchor="middle">
		<text><tspan font-family="Arial" > 50</tspan></text>
	</g>
</g>
<g fill="none" color="black" stroke="currentColor" stroke-width="1.00" stroke-linecap="butt" stroke-linejoin="miter">
	<path stroke='black'  d='M394.0,428.0 L394.0,419.0 M394.0,18.1 L394.0,27.1  '/>	<g transform="translate(394.0,449.9)" stroke="none" fill="black" font-family="Arial" font-size="12.00"  text-anchor="middle">
		<text><tspan font-family="Arial" > 60</tspan></text>
	</g>
</g>
<g fill="none" color="black" stroke="currentColor" stroke-width="1.00" stroke-linecap="butt" stroke-linejoin="miter">
	<path stroke='black'  d='M450.6,428.0 L450.6,419.0 M450.6,18.1 L450.6,27.1  '/>	<g transform="translate(450.6,449.9)" stroke="none" fill="black" font-family="Arial" font-size="12.00"  text-anchor="middle">
		<text><tspan font-family="Arial" > 70</tspan></text>
	</g>
</g>
<g fill="none" color="black" stroke="currentColor" stroke-width="1.00" stroke-linecap="butt" stroke-linejoin="miter">
	<path stroke='black'  d='M507.3,428.0 L507.3,419.0 M507.3,18.1 L507.3,27.1  '/>	<g transform="translate(507.3,449.9)" stroke="none" fill="black" font-family="Arial" font-size="12.00"  text-anchor="middle">
		<text><tspan font-family="Arial" > 80</tspan></text>
	</g>
</g>
<g fill="none" color="black" stroke="currentColor" stroke-width="1.00" stroke-linecap="butt" stroke-linejoin="miter">
	<path stroke='black'  d='M564.0,428.0 L564.0,419.0 M564.0,18.1 L564.0,27.1  '/>	<g transform="translate(564.0,449.9)" stroke="none" fill="black" font-family="Arial" font-size="12.00"  text-anchor="middle">
		<text><tspan font-family="Arial" > 90</tspan></text>
	</g>
</g>
<g fill="none" color="black" stroke="currentColor" stroke-width="1.00" stroke-linecap="butt" stroke-linejoin="miter">
</g>
<g fill="none" color="black" stroke="currentColor" stroke-width="1.00" stroke-linecap="butt" stroke-linejoin="miter">
	<path stroke='black'  d='M53.9,18.1 L53.9,428.0 L615.0,428.0 L615.0,18.1 L53.9,18.1 Z  '/></g>
<g fill="none" color="black" stroke="currentColor" stroke-width="1.00" stroke-linecap="butt" stroke-linejoin="miter">
</g>
	<g id="gnuplot_plot_1" ><title>pages+cached+noexternal+nofonts+nosvg+noimg</title>
<g fill="none" color="black" stroke="currentColor" stroke-width="1.00" stroke-linecap="butt" stroke-linejoin="miter">
	<g transform="translate(508.4,467.9)" stroke="none" fill="black" font-family="Arial" font-size="12.00"  text-anchor="end">
		<text><tspan font-family="Arial" >pages+cached+noexternal+nofonts+nosvg+noimg</tspan></text>
	</g>
</g>
<g fill="none" color="black" stroke="currentColor" stroke-width="1.00" stroke-linecap="butt" stroke-linejoin="miter">
	<path stroke='rgb(148,   0, 211)'  d='M516.7,464.0 L558.9,464.0 M53.9,264.6 L59.6,283.8 L65.2,155.5 L70.9,232.3 L76.6,278.1 L82.2,260.1
		L87.9,236.5 L93.6,147.4 L99.2,267.0 L104.9,336.4 L110.6,394.1 L116.2,290.3 L121.9,337.6 L127.6,349.2
		L133.2,237.1 L138.9,291.8 L144.6,341.2 L150.3,406.7 L155.9,252.7 L161.6,222.2 L167.3,304.7 L172.9,400.4
		L178.6,107.6 L184.3,393.8 L189.9,352.2 L195.6,288.2 L201.3,327.1 L206.9,361.2 L212.6,314.9 L218.3,366.3
		L223.9,402.5 L229.6,246.1 L235.3,246.1 L240.9,385.4 L246.6,399.2 L252.3,264.0 L257.9,356.7 L263.6,369.6
		L269.3,286.4 L274.9,217.4 L280.6,303.5 L286.3,398.3 L291.9,279.6 L297.6,26.0 L303.3,381.2 L308.9,385.7
		L314.6,146.2 L320.3,315.8 L325.9,256.8 L331.6,232.6 L337.3,389.6 L343.0,314.3 L348.6,207.5 L354.3,416.8
		L360.0,311.6 L365.6,149.8 L371.3,248.8 L377.0,280.5 L382.6,288.2 L388.3,209.9 L394.0,395.6 L399.6,383.9
		L405.3,310.7 L411.0,298.4 L416.6,376.8 L422.3,340.3 L428.0,234.1 L433.6,290.0 L439.3,286.4 L445.0,312.5
		L450.6,198.8 L456.3,359.1 L462.0,372.3 L467.6,212.9 L473.3,146.8 L479.0,211.4 L484.6,328.9 L490.3,381.8
		L496.0,137.5 L501.6,282.3 L507.3,308.0 L513.0,218.9 L518.6,360.9 L524.3,332.2 L530.0,194.0 L535.7,226.6
		L541.3,261.3 L547.0,272.7 L552.7,387.5 L558.3,393.5 L564.0,305.3 L569.7,383.3 L575.3,332.2 L581.0,291.2
		L586.7,293.6 L592.3,393.2 L598.0,267.0 L603.7,280.5 L609.3,281.1 L615.0,279.9  '/></g>
	</g>
	<g id="gnuplot_plot_2" ><title>pages+cached+noexternal+nofonts+nosvg+noimg+nocss</title>
<g fill="none" color="black" stroke="currentColor" stroke-width="1.00" stroke-linecap="butt" stroke-linejoin="miter">
	<g transform="translate(508.4,485.9)" stroke="none" fill="black" font-family="Arial" font-size="12.00"  text-anchor="end">
		<text><tspan font-family="Arial" >pages+cached+noexternal+nofonts+nosvg+noimg+nocss</tspan></text>
	</g>
</g>
<g fill="none" color="black" stroke="currentColor" stroke-width="1.00" stroke-linecap="butt" stroke-linejoin="miter">
	<path stroke='rgb(  0, 158, 115)'  d='M516.7,482.0 L558.9,482.0 M53.9,205.4 L59.6,336.1 L65.2,367.5 L70.9,273.6 L76.6,141.1 L82.2,128.6
		L87.9,369.6 L93.6,332.8 L99.2,250.0 L104.9,171.3 L110.6,138.4 L116.2,391.4 L121.9,307.1 L127.6,229.9
		L133.2,410.2 L138.9,386.6 L144.6,276.6 L150.3,283.5 L155.9,285.0 L161.6,352.8 L167.3,412.9 L172.9,293.3
		L178.6,307.1 L184.3,231.4 L189.9,272.7 L195.6,268.2 L201.3,395.9 L206.9,286.1 L212.6,173.7 L218.3,354.6
		L223.9,409.9 L229.6,221.9 L235.3,291.2 L240.9,382.4 L246.6,234.4 L252.3,277.8 L257.9,315.2 L263.6,238.0
		L269.3,368.1 L274.9,379.1 L280.6,300.8 L286.3,263.7 L291.9,401.3 L297.6,392.3 L303.3,201.5 L308.9,299.9
		L314.6,215.6 L320.3,295.1 L325.9,246.7 L331.6,361.8 L337.3,32.6 L343.0,259.8 L348.6,302.6 L354.3,139.9
		L360.0,395.6 L365.6,414.7 L371.3,218.3 L377.0,417.7 L382.6,383.9 L388.3,285.0 L394.0,383.0 L399.6,386.3
		L405.3,176.7 L411.0,375.9 L416.6,415.6 L422.3,162.3 L428.0,254.2 L433.6,130.9 L439.3,385.1 L445.0,287.6
		L450.6,357.9 L456.3,376.8 L462.0,174.9 L467.6,359.4 L473.3,382.4 L479.0,267.0 L484.6,263.7 L490.3,261.3
		L496.0,211.7 L501.6,420.1 L507.3,356.4 L513.0,289.7 L518.6,184.8 L524.3,290.9 L530.0,63.4 L535.7,351.6
		L541.3,229.6 L547.0,334.0 L552.7,373.5 L558.3,219.8 L564.0,285.8 L569.7,265.2 L575.3,238.3 L581.0,220.1
		L586.7,300.8 L592.3,249.7 L598.0,391.1 L603.7,208.4 L609.3,359.1 L615.0,360.0  '/></g>
	</g>
<g fill="none" color="#FFFFFF" stroke="rgb(  0, 158, 115)" stroke-width="2.00" stroke-linecap="butt" stroke-linejoin="miter">
</g>
<g fill="none" color="black" stroke="currentColor" stroke-width="2.00" stroke-linecap="butt" stroke-linejoin="miter">
</g>
<g fill="none" color="black" stroke="black" stroke-width="1.00" stroke-linecap="butt" stroke-linejoin="miter">
</g>
<g fill="none" color="black" stroke="currentColor" stroke-width="1.00" stroke-linecap="butt" stroke-linejoin="miter">
	<path stroke='black'  d='M53.9,18.1 L53.9,428.0 L615.0,428.0 L615.0,18.1 L53.9,18.1 Z  '/></g>
<g fill="none" color="black" stroke="currentColor" stroke-width="1.00" stroke-linecap="butt" stroke-linejoin="miter">
</g>
</g>
</svg>
